X:147
T:Peas Upon a Trencher - Regulation Fife Calls 1776-1856, #1 *
B:American Veteran Fifer, Regulation Fife Calls 1776-1856, #1
M:2/4
L:1/8
Q:1/4=90
K:G
%%MIDI channel 1
%%MIDI program 72
%%MIDI transpose 20
%%MIDI grace 1/4
%%MIDI ratio 2 1
D|G>F G>A|B2 B2|A>G A>B|c2 c2|G>A B>c| d>e d>B|c>e d>B|G2 -G:|
|:d|g>G G>A|B2 B2|a>A A>B|c2 c2|G>A B>c|d>e d>B|c>e d>B|G2 -G:|
